X:1
T:Title
%%score { ( 1 3 ) | 2 }
L:1/8
Q:1/4=126
M:6/4
K:Ab
V:1 treble nm="Grand Piano"
V:3 treble 
V:2 bass 
V:1
 [CE]2 [CF]2 [CG]2 [EA]2 [EB]2 [EA]2 | [DA]2 [DG]2 [DF]2 G6 | B2 =A2 B2 c2 B2 G2 | D2 E2 F2 [CE]6 | %4
w: Grant~Colfax~Tullar * * * * *||||
 C2 C2 F2 A2 A2 G2 | z6 [Ac]6 | B2 =d2 c2 B2 [EGc]2 [CFA]2 | [EG]2 [B,=DA]2 [A,DF]2 [G,E]6 | %8
w: ||||
 [Ec]2 [Ec]2 c2 c2 [DB]2 [CA]2 | [A,E]2 [A,EF]2 [=A,E_G]2 [B,D=G]6 | [Ed]2 [Gd]2 [Fd]2 d2 c2 B2 | %11
w: |||
 F2 G2 F2 E6 | e2 e2 e2 e2 d2 c2 | [FB]2 [FB]2 [Fc]2 [Fd]6 | %14
w: |||
[M:13/8] [FA]2 [FG]2 [FA]2 [Ae]2 [Ac]2 [FA]3 | %15
w: |
[M:6/4] [Ac]2 [Gc]3 [GB] A6[Q:1/4=124][Q:1/4=122][Q:1/4=120][Q:1/4=119][Q:1/4=117][Q:1/4=115][Q:1/4=113][Q:1/4=111][Q:1/4=109][Q:1/4=107][Q:1/4=106][Q:1/4=104][Q:1/4=102][Q:1/4=100][Q:1/4=98][Q:1/4=96] |] %16
w: |
V:2
 [A,,A,]2 [A,,A,]2 [A,,A,]2 [A,,A,]2 [C,A,]2 [C,A,]2 | [B,,B,]2 [B,,B,]2 [B,,B,]2 [E,B,D]6 | %2
 [E,G,D]2 [E,_G,D]2 [E,=G,D]2 [E,G,D]2 [E,G,D]2 [E,B,D]2 | [E,G,B,]2 [E,G,C]2 [E,G,D]2 [A,,A,]6 | %4
 [F,A,]2 [F,A,]2 [F,A,C]2 [F,CF]2 [F,CF]2 [F,B,C]2 | [F,A,C]2 [F,A,C]2[K:treble] [F,CF]2 .[F,F]6 | %6
 [B,=DA]2 [B,FA]2 [B,EA]2 [B,DA]2[K:bass] E,2 F,2 | B,2 B,,2 B,,2 E,6 | %8
 [A,,A,]2 [C,A,]2 [E,A,E]2 [A,E]2 [A,,A,]2 [A,,A,]2 | C,2 C,2 _C,2 B,,6 | %10
 [E,G,]2 [E,B,]2 [E,A,]2 [E,G,E]2 [E,G,E]2 [E,G,D]2 | [E,G,D]2 [E,B,D]2 [E,G,D]2 [B,,A,C]6 | %12
 [A,CE]2 [A,CE]2 [A,CE]2 [A,CE]2 [G,B,E]2 [A,E]2 | [D,D]2 [D,D]2 [D,=A,]2 [B,,B,]6 | %14
[M:13/8] [=D,_C]2 [D,C]2 [D,C]2 [E,=C]2 [E,E]2 [F,C]3 |[M:6/4] [E,E]2 [E,E]3 [E,D] [A,C]6 |] %16
V:3
 x12 | x12 | x12 | x12 | x12 | F2 F2 A2 z4 E2 | x12 | x12 | x12 | x12 | x12 | x12 | x12 | x12 | %14
[M:13/8] x13 |[M:6/4] x12 |] %16

